X:258
T:Fly Around, My Pretty Little Miss
C:Traditional American
S:Colin Hume's website,  colinhume.com  - chords can also be printed below the stave.
Q:1/2=120
M:2/2
L:1/4
K:D
|: "D"fe dB | "D"A/B/A/G/ F2 | "D"A3/A/ Bd | "D"f2 f2 |\
"D"fe dB | "D"A/B/A/G/ F2 | "G"G3/G/ "A7"FE | "D"D2 D2 :|
|: "D"FA AA/A/ | "G"BG GG/G/ | "D"AA/B/ AF | "A7"E2 E2 |\
"D"FA A/A/A | "G"GB B/B/B | "A7"AA FE | "D"D2 D2 :|

